icons/icn_compLayers.svg

<svg width="24" xmlns="http://www.w3.org/2000/svg" height="23.992" id="screenshot-701359cf-58fd-8059-8006-76ef34407275" viewBox="0 0 24 23.992" xmlns:xlink="http://www.w3.org/1999/xlink" fill="none" version="1.1"><g id="shape-701359cf-58fd-8059-8006-76ef34407275"><g class="frame-container-wrapper"><g class="frame-container-blur"><g class="frame-container-shadows"><g fill="none"><g class="fills" id="fills-701359cf-58fd-8059-8006-76ef34407275"><rect rx="0" ry="0" x="0" y="0" width="24" height="23.992269617594275" transform="matrix(1, 0, 0, 1, 0, 0)" class="frame-background"/></g><g class="frame-children"><g id="shape-701359cf-58fd-8059-8006-76ecdc28aa48" width="24" height="24" version="1.1" rx="0" ry="0" style="fill: rgb(0, 0, 0);"><g id="shape-701359cf-58fd-8059-8006-76ecdc2e5906" style="opacity: 1;"><g class="fills" id="fills-701359cf-58fd-8059-8006-76ecdc2e5906"><path d="M12.199553489685059,2.0791938304901123C11.039641380310059,2.0791938304901123,10.081145286560059,3.0370795726776123,10.081145286560059,4.196991443634033C10.079192161560059,4.391571521759033,10.155852317810059,4.578827381134033,10.293303489685059,4.717133045196533C10.429778099060059,4.856049060821533,10.616057395935059,4.934051990509033,10.811614036560059,4.934906482696533C11.007170677185059,4.935883045196533,11.196379661560059,4.858856678009033,11.334807395935059,4.719940662384033C11.473235130310059,4.581146717071533,11.550871849060059,4.392914295196533,11.549895286560059,4.196991443634033C11.549895286560059,3.8238227367401123,11.826750755310059,3.5475776195526123,12.199553489685059,3.5475776195526123L19.802335739135742,3.5475776195526123C20.175138473510742,3.5475776195526123,20.459318161010742,3.8238227367401123,20.459318161010742,4.196991443634033L20.459318161010742,11.797211647033691C20.459318161010742,12.169648170471191,20.175138473510742,12.446503639221191,19.802335739135742,12.446503639221191L19.005216598510742,12.446503639221191C18.808683395385742,12.445160865783691,18.620450973510742,12.522065162658691,18.481290817260742,12.660981178283691C18.342863082885742,12.799775123596191,18.265226364135742,12.987885475158691,18.267179489135742,13.184296607971191C18.267179489135742,13.378876686096191,18.345548629760742,13.565155982971191,18.483976364135742,13.702729225158691C18.622404098510742,13.839570045471191,18.809659957885742,13.915741920471191,19.005216598510742,13.914765357971191L19.802335739135742,13.914765357971191C20.962247848510742,13.914765357971191,21.920988082885742,12.956513404846191,21.920988082885742,11.797211647033691L21.920988082885742,4.196991443634033C21.920988082885742,3.0370795726776123,20.962247848510742,2.0791938304901123,19.802335739135742,2.0791938304901123Z" style="display: inline; stroke-linecap: round; stroke-linejoin: round; fill: rgb(0, 0, 0); fill-opacity: 1;"/></g></g><g id="shape-701359cf-58fd-8059-8006-76ecdc2ec0d0" style="opacity: 1;"><g class="fills" id="fills-701359cf-58fd-8059-8006-76ecdc2ec0d0"><path d="M11.416106224060059,5.980682849884033C8.433196067810059,5.980682849884033,6.003508567810059,8.429535865783691,6.003508567810059,11.423554420471191C6.003508567810059,14.418061256408691,8.433196067810059,16.870452880859375,11.416106224060059,16.870452880859375C12.453215599060059,16.870452880859375,13.423918724060059,16.572967529296875,14.247893333435059,16.060150146484375L19.652189254760742,20.790863037109375C19.996183395385742,21.087371826171875,20.514738082885742,21.050994873046875,20.813566207885742,20.708709716796875C20.958585739135742,20.544281005859375,21.031339645385742,20.328948974609375,21.017667770385742,20.110198974609375C21.002775192260742,19.891693115234375,20.902189254760742,19.687835693359375,20.737882614135742,19.543426513671875L15.510832786560059,14.975068092346191C16.330411911010742,14.019013404846191,16.827726364135742,12.776703834533691,16.827726364135742,11.423554420471191C16.827726364135742,8.429535865783691,14.399260520935059,5.980682849884033,11.416106224060059,5.980682849884033ZM11.416106224060059,7.632294178009033C13.499602317810059,7.632294178009033,15.175139427185059,9.315522193908691,15.175139427185059,11.423554420471191C15.175139427185059,13.531464576721191,13.499602317810059,15.219086647033691,11.416106224060059,15.219086647033691C9.332854270935059,15.219086647033691,7.652434349060059,13.531464576721191,7.652434349060059,11.423554420471191C7.652434349060059,9.315522193908691,9.332854270935059,7.632294178009033,11.416106224060059,7.632294178009033Z" style="display: inline; stroke-width: 0.786641; stroke-dasharray: none; stroke-linecap: round; stroke-linejoin: bevel; fill: rgb(0, 0, 0); fill-opacity: 1;"/></g></g><g id="shape-701359cf-58fd-8059-8006-76ecdc2f36f1" style="opacity: 1;"><g class="fills" id="fills-701359cf-58fd-8059-8006-76ecdc2f36f1"><path d="M4.198088645935059,10.077851295471191C3.0381765365600586,10.077851295471191,2.0794363021850586,11.035737037658691,2.0794363021850586,12.195527076721191L2.0794363021850586,19.795745849609375C2.0794363021850586,20.955047607421875,3.0381765365600586,21.913421630859375,4.198088645935059,21.913421630859375L11.808196067810059,21.913421630859375C12.968108177185059,21.913421630859375,13.926848411560059,20.955047607421875,13.926848411560059,19.795745849609375L13.926848411560059,18.991424560546875C13.925871849060059,18.796234130859375,13.847502708435059,18.609954833984375,13.709074974060059,18.472503662109375C13.570647239685059,18.335662841796875,13.383391380310059,18.259490966796875,13.188567161560059,18.260833740234375C12.785490989685059,18.262298583984375,12.458830833435059,18.588348388671875,12.457854270935059,18.991424560546875L12.457854270935059,19.795745849609375C12.457854270935059,20.168426513671875,12.180998802185059,20.445037841796875,11.808196067810059,20.445037841796875L4.198088645935059,20.445037841796875C3.8252859115600586,20.445037841796875,3.5484304428100586,20.168426513671875,3.5484304428100586,19.795745849609375L3.5484304428100586,12.195527076721191C3.5484304428100586,11.822480201721191,3.8252859115600586,11.546113014221191,4.198088645935059,11.546113014221191C4.600188255310059,11.544770240783691,4.926848411560059,11.218232154846191,4.928801536560059,10.815766334533691C4.929778099060059,10.620697975158691,4.853117942810059,10.433442115783691,4.716643333435059,10.295136451721191C4.578948020935059,10.156830787658691,4.392668724060059,10.078339576721191,4.198088645935059,10.077851295471191Z" style="display: inline; stroke-linecap: round; stroke-linejoin: round; fill: rgb(0, 0, 0); fill-opacity: 1;"/></g></g></g></g></g></g></g></g></g></svg>

<svg fill="none" viewBox="0 0 24 23.992"><g class="frame-container-wrapper"><g class="frame-container-blur"><g class="frame-container-shadows"><g class="fills"><rect width="24" height="23.9923" class="frame-background" rx="0" ry="0"/></g><g fill="#000" class="frame-children"><path d="M12.1996 2.0792c-1.16 0-2.1185.9579-2.1185 2.1178a.7279.7279 0 0 0 .2122.5201.7297.7297 0 0 0 .5183.2178.7341.7341 0 0 0 .7383-.738c0-.373.2769-.6493.6497-.6493h7.6027c.3728 0 .657.2762.657.6494v7.6002c0 .3724-.2842.6493-.657.6493h-.797a.7334.7334 0 0 0-.524.2145.7307.7307 0 0 0-.2141.5233c0 .1946.0783.3809.2168.5184a.7355.7355 0 0 0 .5212.212h.7971c1.16 0 2.1187-.9582 2.1187-2.1175V4.197c0-1.16-.9588-2.1178-2.1187-2.1178Z" class="fills"/><path d="M11.4161 5.9807c-2.9829 0-5.4126 2.4488-5.4126 5.4429 0 2.9945 2.4297 5.4469 5.4126 5.4469 1.0371 0 2.0078-.2975 2.8318-.8103l5.4043 4.7307a.8257.8257 0 0 0 1.1614-.0822.8261.8261 0 0 0 .204-.5985.8298.8298 0 0 0-.2797-.5668l-5.227-4.5683c.8195-.956 1.3168-2.1984 1.3168-3.5515 0-2.994-2.4284-5.443-5.4116-5.443Zm0 1.6516c2.0835 0 3.759 1.6832 3.759 3.7913 0 2.1079-1.6755 3.7955-3.759 3.7955-2.0832 0-3.7637-1.6876-3.7637-3.7955 0-2.108 1.6805-3.7913 3.7637-3.7913Z" class="fills"/><path d="M4.198 10.0779c-1.1598 0-2.1186.9578-2.1186 2.1176v7.6002c0 1.1593.9588 2.1177 2.1187 2.1177h7.6101c1.16 0 2.1186-.9584 2.1186-2.1177v-.8043a.7331.7331 0 0 0-.7383-.7306c-.403.0015-.7297.3275-.7306.7306v.8043c0 .3727-.2769.6493-.6497.6493H4.1981c-.3728 0-.6497-.2766-.6497-.6493v-7.6002c0-.373.2769-.6494.6497-.6494.402-.0013.7287-.3279.7307-.7303a.7364.7364 0 0 0-.2122-.5207.7347.7347 0 0 0-.5185-.2172Z" class="fills"/></g></g></g></g></svg>
